X:6
T:Shipwreck. THO5.006, The
M:6/8
L:1/8
B:Thompson's Complete Collection of 200 Favourite Dances Vol.5
F:https://www.libraryofdance.org/manuals/1780c-Thompson-Compleat-5.pdf
Z:vmp. Peter Dunk 2024
Q:3/8=105
K:DBed
d2d a2a|gfg f3|egb afd|Bed cBA|
d2d a2a|gfg f3|egb afd|gec d3:|
|:A2A cdc|efe c2A|d2d fgf|a>ba f2d|
g2b bag|f2a agf|eba gfe|d3-d3:|
W:
W:The 1st Lady set to the 2nd Gent: and turn the 3rd ./.
W:Frist Gent: do the same ./:
W:Lead down the middle and up again :/. La Pousset :/:

